svg/timer_marker.svg

<svg xmlns="http://www.w3.org/2000/svg" viewBox="0 0 24 24"><path d="M15 3H9V1h6zm-2 12.5c0 2 1.28 4.23 2.42 5.83-1.05.43-2.21.67-3.42.67a9 9 0 0 1 0-18c2.12 0 4.07.74 5.62 2l1.42-1.44c.51.44.96.9 1.41 1.41l-1.42 1.42c.71.89 1.26 1.93 1.59 3.05A5.4 5.4 0 0 0 18.5 10c-3 0-5.5 2.5-5.5 5.5m0-1.5V7h-2v7zm9 1.5c0 2.6-3.5 6.5-3.5 6.5S15 18.1 15 15.5c0-1.9 1.6-3.5 3.5-3.5s3.5 1.6 3.5 3.5m-2.3.1c0-.6-.6-1.2-1.2-1.2s-1.2.5-1.2 1.2c0 .6.5 1.2 1.2 1.2s1.3-.6 1.2-1.2"/></svg>

<svg xmlns="http://www.w3.org/2000/svg" id="mdi-timer-marker" viewBox="0 0 24 24"><path d="M15 3H9V1H15V3M13 15.5C13 17.5 14.28 19.73 15.42 21.33C14.37 21.76 13.21 22 12 22C7.03 22 3 17.97 3 13S7.03 4 12 4C14.12 4 16.07 4.74 17.62 6L19.04 4.56C19.55 5 20 5.46 20.45 5.97L19.03 7.39C19.74 8.28 20.29 9.32 20.62 10.44C19.97 10.16 19.25 10 18.5 10C15.5 10 13 12.5 13 15.5M13 14V7H11V14H13M22 15.5C22 18.1 18.5 22 18.5 22S15 18.1 15 15.5C15 13.6 16.6 12 18.5 12S22 13.6 22 15.5M19.7 15.6C19.7 15 19.1 14.4 18.5 14.4S17.3 14.9 17.3 15.6C17.3 16.2 17.8 16.8 18.5 16.8S19.8 16.2 19.7 15.6Z" /></svg>
